public/logos/logo-white.svg

<svg width="112" height="24" viewBox="0 0 112 24" fill="none" xmlns="http://www.w3.org/2000/svg">
<g clip-path="url(#clip0_3279_62)">
<path d="M6 0C9.31369 0 12 2.68631 12 6V18C12 21.3137 9.31369 24 6 24C2.68631 24 0 21.3137 0 18C0 14.6863 2.68631 12 6 12C2.68631 12 0 9.31369 0 6C0 2.68631 2.68631 0 6 0ZM18 12C14.6863 12 12 9.31369 12 6C12 2.68631 14.6863 0 18 0C21.3137 0 24 2.68631 24 6V18C24 21.3137 21.3137 24 18 24C14.6863 24 12 21.3137 12 18C12 14.6863 14.6863 12 18 12Z" fill="#F5F5F5"/>
</g>
<path d="M31.6504 19V4.9082H34.1895L38.6914 16.1387H38.8281L43.3301 4.9082H45.8594V19H43.8574V8.6582H42.793L45.0781 5.29883L39.5605 19H37.9492L32.4414 5.29883L34.7168 8.6582H33.6523V19H31.6504ZM51.2066 19.1855C50.5296 19.1855 49.9273 19.0553 49.4 18.7949C48.8792 18.5345 48.4658 18.1699 48.1598 17.7012C47.8603 17.2259 47.7105 16.6693 47.7105 16.0312V16.0117C47.7105 15.3867 47.8635 14.8529 48.1695 14.4102C48.4755 13.9609 48.9215 13.6094 49.5074 13.3555C50.0934 13.0951 50.803 12.9421 51.6363 12.8965L55.5426 12.6621V14.1562L51.9195 14.3809C51.2164 14.4199 50.6923 14.5729 50.3473 14.8398C50.0022 15.1068 49.8297 15.4714 49.8297 15.9336V15.9531C49.8297 16.4349 50.012 16.8125 50.3766 17.0859C50.7411 17.3529 51.2099 17.4863 51.7828 17.4863C52.2971 17.4863 52.7594 17.3822 53.1695 17.1738C53.5797 16.959 53.902 16.6725 54.1363 16.3145C54.3707 15.9564 54.4879 15.5495 54.4879 15.0938V11.8223C54.4879 11.2493 54.3056 10.8066 53.941 10.4941C53.5829 10.1816 53.0556 10.0254 52.359 10.0254C51.76 10.0254 51.275 10.1361 50.9039 10.3574C50.5328 10.5723 50.2887 10.8717 50.1715 11.2559L50.152 11.3047H48.1207L48.1305 11.2168C48.2086 10.6374 48.4332 10.1263 48.8043 9.68359C49.1819 9.24089 49.6767 8.89583 50.2887 8.64844C50.9072 8.39453 51.6233 8.26758 52.4371 8.26758C53.316 8.26758 54.0647 8.41081 54.6832 8.69727C55.3082 8.97721 55.7835 9.38086 56.109 9.9082C56.4345 10.429 56.5973 11.054 56.5973 11.7832V19H54.4879V17.4668H54.3512C54.1428 17.8249 53.8824 18.1341 53.5699 18.3945C53.2574 18.6484 52.9026 18.8438 52.5055 18.9805C52.1083 19.1172 51.6754 19.1855 51.2066 19.1855ZM63.2531 22.7109C62.3612 22.7109 61.5865 22.5872 60.9289 22.3398C60.2714 22.0924 59.7473 21.7507 59.3566 21.3145C58.9725 20.8783 58.7349 20.3737 58.6437 19.8008V19.7617H60.7824L60.802 19.791C60.8996 20.1491 61.16 20.4421 61.5832 20.6699C62.0129 20.8978 62.576 21.0117 63.2727 21.0117C64.1385 21.0117 64.8124 20.8099 65.2941 20.4062C65.7759 20.0091 66.0168 19.4492 66.0168 18.7266V16.8027H65.8801C65.6717 17.1868 65.4048 17.5156 65.0793 17.7891C64.7603 18.056 64.3924 18.2611 63.9758 18.4043C63.5591 18.541 63.1066 18.6094 62.6184 18.6094C61.7264 18.6094 60.9517 18.3945 60.2941 17.9648C59.6431 17.5286 59.1385 16.9264 58.7805 16.1582C58.4224 15.39 58.2434 14.498 58.2434 13.4824V13.4629C58.2434 12.4408 58.4224 11.5423 58.7805 10.7676C59.1451 9.98633 59.6561 9.3776 60.3137 8.94141C60.9712 8.50521 61.7525 8.28711 62.6574 8.28711C63.1522 8.28711 63.6047 8.36523 64.0148 8.52148C64.4315 8.67773 64.7961 8.90234 65.1086 9.19531C65.4276 9.48177 65.6913 9.82357 65.8996 10.2207H66.007V8.47266H68.1262V18.7656C68.1262 19.5664 67.9276 20.2598 67.5305 20.8457C67.1333 21.4382 66.5702 21.8971 65.841 22.2227C65.1118 22.5482 64.2492 22.7109 63.2531 22.7109ZM63.2043 16.8613C63.7902 16.8613 64.2948 16.7214 64.718 16.4414C65.1411 16.1549 65.4667 15.7578 65.6945 15.25C65.9289 14.7422 66.0461 14.1562 66.0461 13.4922V13.4727C66.0461 12.8021 65.9289 12.2129 65.6945 11.7051C65.4667 11.1973 65.1411 10.8034 64.718 10.5234C64.2948 10.237 63.7902 10.0938 63.2043 10.0938C62.6184 10.0938 62.1171 10.237 61.7004 10.5234C61.2837 10.8034 60.9647 11.1973 60.7434 11.7051C60.522 12.2129 60.4113 12.8021 60.4113 13.4727V13.4824C60.4113 14.1595 60.522 14.752 60.7434 15.2598C60.9647 15.7611 61.2837 16.1549 61.7004 16.4414C62.1171 16.7214 62.6184 16.8613 63.2043 16.8613ZM70.3973 19V8.47266H72.5164V19H70.3973ZM71.4617 6.65625C71.1036 6.65625 70.7944 6.5293 70.534 6.27539C70.2801 6.01497 70.1531 5.70898 70.1531 5.35742C70.1531 4.99284 70.2801 4.68685 70.534 4.43945C70.7944 4.18555 71.1036 4.05859 71.4617 4.05859C71.8263 4.05859 72.1355 4.18555 72.3895 4.43945C72.6434 4.68685 72.7703 4.99284 72.7703 5.35742C72.7703 5.70898 72.6434 6.01497 72.3895 6.27539C72.1355 6.5293 71.8263 6.65625 71.4617 6.65625ZM74.8949 19V4.39062H77.0141V19H74.8949ZM81.5258 19L77.7562 14.0781L79.2797 12.7109L84.0844 19H81.5258ZM76.7699 15.4355L76.7016 12.916H77.1508L81.3305 8.47266H83.8207L79.0258 13.3652L78.3227 13.8828L76.7699 15.4355ZM85.3008 19V4.39062H87.4199V19H85.3008ZM94.193 19.2051C93.1708 19.2051 92.2887 18.9837 91.5465 18.541C90.8043 18.0918 90.2314 17.457 89.8277 16.6367C89.4306 15.8164 89.232 14.8431 89.232 13.7168V13.6973C89.232 12.584 89.4306 11.6204 89.8277 10.8066C90.2314 9.99284 90.8043 9.36784 91.5465 8.93164C92.2887 8.48893 93.1676 8.26758 94.1832 8.26758C95.0751 8.26758 95.8401 8.42708 96.4781 8.74609C97.1227 9.05859 97.6337 9.48503 98.0113 10.0254C98.3889 10.5658 98.6201 11.1745 98.7047 11.8516L98.7145 11.9102H96.6734L96.6637 11.8711C96.5465 11.3503 96.2796 10.9173 95.8629 10.5723C95.4462 10.2207 94.8896 10.0449 94.193 10.0449C93.6135 10.0449 93.1155 10.1914 92.6988 10.4844C92.2822 10.7773 91.9599 11.1973 91.732 11.7441C91.5107 12.291 91.4 12.9421 91.4 13.6973V13.7168C91.4 14.4915 91.5139 15.1556 91.7418 15.709C91.9697 16.2624 92.2919 16.6888 92.7086 16.9883C93.1253 17.2812 93.6201 17.4277 94.193 17.4277C94.857 17.4277 95.3941 17.2747 95.8043 16.9688C96.2145 16.6628 96.4977 16.2266 96.6539 15.6602L96.6734 15.6016H98.7047L98.6949 15.6797C98.5777 16.3698 98.3303 16.9785 97.9527 17.5059C97.5751 18.0332 97.0706 18.4499 96.4391 18.7559C95.8141 19.0553 95.0654 19.2051 94.193 19.2051ZM100.39 19V4.39062H102.509V10.1035H102.646C102.906 9.52409 103.293 9.07487 103.808 8.75586C104.329 8.43034 104.973 8.26758 105.741 8.26758C106.523 8.26758 107.187 8.42708 107.734 8.74609C108.28 9.05859 108.697 9.51432 108.984 10.1133C109.27 10.7057 109.413 11.4186 109.413 12.252V19H107.294V12.7305C107.294 11.8581 107.105 11.2005 106.728 10.7578C106.35 10.3086 105.774 10.084 104.999 10.084C104.491 10.084 104.052 10.1979 103.681 10.4258C103.31 10.6536 103.02 10.9727 102.812 11.3828C102.61 11.793 102.509 12.278 102.509 12.8379V19H100.39Z" fill="#F5F5F5"/>
<defs>
<clipPath id="clip0_3279_62">
<rect width="24" height="24" fill="white"/>
</clipPath>
</defs>
</svg>

<svg xmlns="http://www.w3.org/2000/svg" width="112" height="24" fill="none" viewBox="0 0 112 24"><g clip-path="url(#a)"><path fill="#f5f5f5" d="M6 0a6 6 0 0 1 6 6v12a6 6 0 1 1-6-6A6 6 0 0 1 6 0m12 12a6 6 0 1 1 6-6v12a6 6 0 1 1-6-6"/></g><path fill="#f5f5f5" d="M31.65 19V4.908h2.54l4.501 11.23h.137l4.502-11.23h2.53V19h-2.003V8.658h-1.064l2.285-3.36L39.56 19h-1.61L32.44 5.299l2.276 3.36h-1.065V19zm19.557.186q-1.016 0-1.807-.391a3.1 3.1 0 0 1-1.24-1.094q-.45-.713-.45-1.67v-.02q0-.937.46-1.6.459-.675 1.337-1.056.879-.39 2.13-.459l3.906-.234v1.494l-3.623.225q-1.056.058-1.573.459-.517.4-.517 1.094v.02q0 .72.547 1.132.546.4 1.406.4.771 0 1.386-.312.615-.323.967-.86a2.2 2.2 0 0 0 .352-1.22v-3.272q0-.859-.547-1.328-.537-.468-1.582-.469-.898 0-1.455.332a1.53 1.53 0 0 0-.733.899l-.019.049h-2.031l.01-.088q.117-.87.673-1.533.567-.664 1.485-1.036.927-.38 2.148-.38 1.319 0 2.246.43.937.42 1.426 1.21.488.782.488 1.875V19h-2.11v-1.533h-.136a3.5 3.5 0 0 1-.781.928q-.469.38-1.065.585-.596.206-1.298.206m12.046 3.525q-1.338 0-2.324-.371-.987-.372-1.572-1.026a2.95 2.95 0 0 1-.713-1.513v-.04h2.138l.02.03q.147.537.781.879.645.342 1.69.342 1.299 0 2.021-.606.723-.596.723-1.68v-1.923h-.137a3.4 3.4 0 0 1-.8.986 3.5 3.5 0 0 1-1.104.615q-.626.205-1.358.205-1.338 0-2.324-.644-.975-.655-1.513-1.807t-.538-2.676v-.02q0-1.532.538-2.694.546-1.172 1.533-1.827.986-.654 2.343-.654.743 0 1.358.234.624.235 1.094.674.478.43.79 1.026h.108V8.473h2.12v10.293q-.001 1.2-.596 2.08-.596.888-1.69 1.377-1.094.488-2.588.488m-.049-5.85q.879 0 1.514-.42.635-.429.977-1.191.351-.762.351-1.758v-.02q0-1.006-.352-1.767a2.7 2.7 0 0 0-.976-1.182q-.635-.43-1.514-.43t-1.504.43q-.624.42-.957 1.182t-.332 1.768v.01q0 1.015.332 1.777.332.752.957 1.181.625.42 1.504.42M70.397 19V8.473h2.12V19zm1.065-12.344q-.538 0-.928-.38a1.27 1.27 0 0 1-.38-.919q0-.546.38-.918.39-.38.928-.38.546 0 .927.38.381.372.381.918 0 .528-.38.918-.382.381-.928.381m7.779 12.55q-1.534 0-2.647-.665-1.113-.674-1.719-1.904-.595-1.23-.595-2.92v-.02q0-1.67.595-2.89.606-1.222 1.72-1.875 1.112-.664 2.636-.664 1.338 0 2.295.478.966.469 1.533 1.28.567.81.693 1.826l.01.058h-2.04l-.01-.039a2.3 2.3 0 0 0-.802-1.299q-.624-.527-1.67-.527-.869 0-1.493.44-.626.438-.967 1.26-.332.82-.332 1.952v.02q0 1.162.342 1.992.341.83.966 1.28.626.439 1.485.439.995 0 1.611-.46.615-.457.85-1.308l.02-.058h2.03l-.01.078A4.34 4.34 0 0 1 83 17.506a3.9 3.9 0 0 1-1.513 1.25q-.938.45-2.246.45m12.378.116q-2.05 0-3.525-.898-1.475-.909-2.276-2.559-.79-1.65-.79-3.906v-.02q0-2.265.8-3.906.81-1.65 2.285-2.549 1.485-.898 3.506-.898 2.031 0 3.506.898 1.475.9 2.275 2.55.801 1.65.801 3.906v.019q0 2.256-.8 3.906-.791 1.65-2.276 2.559-1.475.898-3.506.898m0-1.943q1.338 0 2.305-.674.976-.674 1.504-1.885.527-1.22.527-2.861v-.02q0-1.65-.527-2.86-.528-1.222-1.504-1.886-.977-.663-2.305-.664-1.327 0-2.305.664-.975.664-1.513 1.875-.537 1.212-.537 2.872v.019q0 1.641.527 2.861.528 1.221 1.504 1.895.977.664 2.324.664m10.758-2.871-.079-2.92h.391l5.791-6.68h2.598l-5.596 6.338-.957.8zM100.355 19V4.908h2.197V19zm8.447 0-4.892-6.719 1.553-1.494L111.537 19z"/><defs><clipPath id="a"><path fill="#fff" d="M0 0h24v24H0z"/></clipPath></defs></svg>
